X: 1385
T: The Belfast Lasses
M:C|
L:1/8
N:"collected by J. O'Neill"
B:O'Neill's 1385
Z:"Transcribed by Bob Safranek, rjs@gsp.org"
K:G
G2 (BG) dGBG | EAAG FAFD | G2 (BG) dGBG |1 EcAF G2 G2 :|2 egea g2 g2 |]
gddc    BdBG | FAAG FAFD | gddc    BdBG |  EFAF G2 G2 |
gddc    BdBG | EAAG FAFD | gdec    BdBG |  egfa g2 g2 |]


